X:1
T:The Battle of the Centuries
T:Charles Howard Marsh
T:The Battle of the Centuries
T:Public Domain
T:Public Domain
T:Public Domain
T:Public Domain
C:Charles Howard Marsh
Z:Public Domain
%%score ( 1 2 ) 3
L:1/8
M:4/4
K:F
V:1 treble 
V:2 treble 
V:3 bass 
V:1
 (3CDE | [A,CF]2 [A,CF]2 F>E F>G | [CFA]2 [DFd]2 [CFc]2 A>G | [B,DF]2 [B,D]2 [B,DF]2 [B,_DG]2 | %4
w: 1.~Driv- ing the|foe be- fore us, we are|on, In the fight for|and right, With our|
w: 2.~Bear- ing the|price- less mess- age to be-|souls In the haunts and|of sin, Mak- ing|
w: 3.~Ev- er- y|race and peo- ple shall His|know And re- vere Him|His love, Shall ex-|
 [A,CA]6 [CAc]>[CAc] | [CGB]2 [CEG]2 [CEG]2 [EBd]>[EBd] | [FAc]2 [CFA]2 [CFA]2 [C^DA]>[CDA] | %7
w: ban- ners high|in the sun- lit sky,|Find- ing glo- ry in|
w: known His grace|to a fet- tered race,|We with Christ are sure|
w: tol our king,|till the earth shall bring|Trib- ute to the King|
 [CEG]2 [Gce]2 [G=Be]2 [FBd]2 | [Ec]6 (3CDE | [A,CF]2 [A,CF]2 F>E F>G | %10
w: the fight. Hav- ing|the sweet as- sur-|ance that the Lord will win|
w: to win; Spread- ing|His love and mer-|cy with en- rap- tured hearts,|
w: a- bove. Mer- cy|and grace are win-|ning, and at length, His throne|
 [CFA]2 [DFd]2 [CFc]2 [CAc]>[CAc] | [DBd]2 [DBd]2 [Ece]2 [DBd]2 | [^CA^c]6 [CAc]>[CAc] | %13
w: ward us in the end,|We are press- ing|on with God’s|
w: known His power to save,|We will true re-|main, till He|
w: deem- er shall as- cend,|Then thro’ count- less|days our souls|
 [DAd]2 [DAc]2 ([Ac][GB]) [D^FA]2 | [_EGc]2 [DGB]2 ([DGB][D^FA]) [DG]2 | %15
w: great Son, The * soul’s|ter- nal friend. * *|
w: shall reign O’er * ev-|land and wave. * ’Tis|
w: shall praise The * sin-|per- fect friend. * *|
 [A,CF]2 [CFA]2 [=B,FA]2 [_B,EG]2 | [A,F]6 ||"^Refrain" [A,FA]>[B,GB] | %18
w: |||
w: the bat- tle of|the|cen- tu-|
w: |||
 [CAc]2 [FAc]2 [EAc]2 [DAc]2 | [CAc]3 [DBd] [CAc]2 [A,FA]>[CAc] | [DBd]2 [DBd]2 [Ece]2 [DBd]2 | %21
w: |||
w: ries, It is Christ|a- gainst the world, And|from age to age|
w: |||
 [CAc]6 [CAc]>[CAc] | [EBe]2 [EBd]2 [EGB]2 [EGB]>[EGB] | [FAd]2 [FAc]2 [CFA]2 f>f | %24
w: |||
w: shall the bat-|tle rage, Till the ban-|ner of sin be furled;|
w: |||
 [EGe]2 d>d [EGc]2 [FG=B]2 | [EGc]6 [A,FA]>[B,GB] | [CAc]2 [FAc]2 [EAc]2 [DAc]2 | %27
w: |||
w: the might- y Sav- ior|the lost, Whom|the ran- somed souls|
w: |||
 [CAc]3 [DBd] [CAc]2 [A,FA]>[CAc] | [DBd]2 [DBd]2 [Ece]2 [DBd]2 | [CAc]6 [FAc]>[FAc] | %30
w: |||
w: a- dore, We will bat-|tle on, till the|earth be won|
w: |||
 [FAf]2 [FAf]2 [EGA]2 [^CGA]>[CGA] | [DFd]2 [DFd]2 [DFG]2 [=B,FG]>[B,FG] | %32
w: ||
w: And the fight shall be|no more. * * *|
w: ||
 [CFA]2 [CFc]2 [CEAa]2 [CEAa]2 | [A,Ff]6 |] %34
w: ||
w: ||
w: ||
V:2
 x2 | x4 [A,C]2 [A,C]2 | x6 [CF]2 | x8 | x8 | x8 | x8 | x8 | x8 | x4 [A,C]2 [A,C]2 | x8 | x8 | x8 | %13
w: |press- ing|truth|||||||And re-||||
w: |night- ed|dens|||||||Mak- ing||||
w: |good- ness|for|||||||Our Re-||||
 x3 D2 x3 | x8 | x8 | x6 || x2 | x8 | x8 | x8 | x8 | x8 | x6 [FA]2 | x2 [FG]2 x4 | x8 | x8 | x8 | %28
w: e-|||||||||||||||
w: ery||||||||||With|of||||
w: ner’s|||||||||||||||
 x8 | x8 | x8 | x8 | x8 | x6 |] %34
w: ||||||
w: ||||||
w: ||||||
V:3
 z2 | [F,,F,]2 [C,,C,]2 [F,,F,]2 [C,,C,]2 | [F,,F,]2 [B,,B,]2 [A,,A,]2 [F,,F,]2 | %3
 [B,,,B,,]2 [B,,D,F,]2 [B,,,B,,]2 [_D,F,]2 | (F,,2 [C,F,A,]2 [C,F,A,]2) z2 | %5
 [C,,C,]2 [C,G,B,]2 [C,G,B,]2 [C,,C,]2 | [F,,F,]2 [C,F,A,]2 [C,F,A,]2 [^F,,^F,]2 | %7
 [G,,G,]2 [E,G,C]2 [G,,G,]2 [D,F,G,=B,]2 | ([C,,C,]2 (3[E,G,C][E,G,C][E,G,C] [E,G,C]2) z2 | %9
 [F,,F,]2 [C,,C,]2 [F,,F,]2 [C,,C,]2 | [F,,F,]2 [B,,B,]2 [A,,A,]2 [F,,F,]2 | %11
 [C,,B,,]2 [D,F,B,]2 [C,,B,,]2 [D,F,B,]2 | (A,,2 [^C,E,A,]2 [C,E,A,]2) [G,,G,]2 | %13
 [^F,,^F,]2 [D,,D,]2 [F,,F,]2 [D,,D,]2 | [G,,G,]2 [D,G,B,]2 ([G,,G,][A,,A,]) [B,,B,]2 | %15
 [C,,C,]2 [C,F,A,]2 [C,,C,]2 [C,E,G,]2 | ([F,,F,]2 [C,,C,]2 F,,2) || z2 | %18
 [F,,F,]2 [C,,C,]2 [F,,F,]2 [C,,C,]2 | [F,,F,]2 [C,,C,]2 [F,,F,]2 z2 | %20
 [B,,,B,,]2 [D,F,B,]2 [B,,,B,,]2 [D,F,B,]2 | ([F,,F,]2 [C,F,A,]2 [C,F,A,]2) [F,,F,]2 | %22
 [G,,G,]2 [C,G,B,]2 [C,,C,]2 [E,G,C]2 | [F,,F,]2 [C,F,A,]2 ([F,,F,][E,,E,]) [D,,D,]2 | %24
 [G,,G,]2 [D,G,=B,]2 [G,,G,]2 [D,G,B,]2 | ([C,,C,]2 (3[E,G,C][E,G,C][E,G,C] [E,G,C]2) z2 | %26
 [F,,F,]2 [C,,C,]2 [F,,F,]2 [C,,C,]2 | [F,,F,]2 [C,,C,]2 [F,,F,]2 z2 | %28
 [B,,,B,,]2 [D,F,B,]2 [B,,,B,,]2 [D,F,B,]2 | [F,,F,]2 [C,F,A,]2 [C,F,A,]2 [_E,,_E,]2 | %30
 [D,,D,]2 [F,A,D]2 [^C,,^C,]2 [A,,,A,,]2 | [B,,,B,,]2 [D,F,B,]2 [=B,,,=B,,]2 [G,,,G,,]2 | %32
 [C,,C,]2 [C,F,A,]2 [C,,C,]2 [C,E,G,]2 | ([F,,F,]2 [C,,C,]2 [F,,,F,,]2) |] %34

